; HEADER_BLOCK_START
; generated by OrcaSlicer 2.3.1-dev on 2026-01-05 at 08:58:14
; total layer number: 70
; filament_density: 1.25,1.25,1.25,1.25
; filament_diameter: 1.75,1.75,1.75,1.75
; max_z_height: 14.00
; HEADER_BLOCK_END

; THUMBNAIL_BLOCK_START

;
; THUMBNAIL_BLOCK_END

; THUMBNAIL_BLOCK_START

;
; THUMBNAIL_BLOCK_END

; external perimeters extrusion width = 0.42mm
; perimeters extrusion width = 0.45mm
; infill extrusion width = 0.45mm
; solid infill extrusion width = 0.42mm
; top infill extrusion width = 0.42mm
; first layer extrusion width = 0.50mm

; EXECUTABLE_BLOCK_START
EXCLUDE_OBJECT_DEFINE NAME=Player_Tray_Lid.stl_id_0_copy_0 CENTER=122.5,122.5 POLYGON=[[70,81.5],[70.0005,81.4476],[70.0018,81.3953],[70.0041,81.343],[70.0073,81.2907],[70.0114,81.2385],[70.0164,81.1864],[70.0224,81.1344],[70.0292,81.0825],[70.0369,81.0307],[70.0456,80.9791],[70.0551,80.9276],[70.0656,80.8763],[70.0769,80.8251],[70.0891,80.7742],[70.1022,80.7235],[70.1162,80.6731],[70.1311,80.6229],[70.1468,80.5729],[70.1634,80.5233],[70.1809,80.4739],[70.1993,80.4249],[70.2184,80.3762],[70.2385,80.3278],[70.2594,80.2798],[70.2811,80.2321],[70.3036,80.1849],[70.327,80.138],[70.3512,80.0916],[70.3761,80.0456],[70.4019,80],[70.4285,79.9549],[70.4559,79.9102],[70.484,79.8661],[70.5129,79.8224],[70.5425,79.7793],[70.5729,79.7366],[70.6041,79.6946],[70.636,79.653],[70.6686,79.612],[70.7019,79.5716],[70.7359,79.5318],[70.7706,79.4926],[70.8059,79.454],[70.842,79.416],[70.8787,79.3787],[70.916,79.342],[70.954,79.3059],[70.9926,79.2706],[71.0318,79.2359],[71.0716,79.2019],[71.112,79.1686],[71.153,79.136],[71.1946,79.1041],[71.2366,79.0729],[71.2793,79.0425],[71.3224,79.0129],[71.3661,78.984],[71.4102,78.9559],[71.4549,78.9285],[71.5,78.9019],[71.5456,78.8761],[71.5916,78.8512],[71.638,78.827],[71.6849,78.8036],[71.7321,78.7811],[71.7798,78.7594],[71.8278,78.7385],[71.8762,78.7184],[71.9249,78.6993],[71.9739,78.6809],[72.0233,78.6634],[72.0729,78.6468],[72.1229,78.6311],[72.1731,78.6162],[72.2235,78.6022],[72.2742,78.5891],[72.3251,78.5769],[72.3763,78.5656],[72.4276,78.5551],[72.4791,78.5456],[72.5307,78.5369],[72.5825,78.5292],[72.6344,78.5224],[72.6864,78.5164],[72.7385,78.5114],[72.7907,78.5073],[72.843,78.5041],[72.8953,78.5018],[72.9476,78.5005],[73,78.5],[172,78.5],[172.052,78.5005],[172.105,78.5018],[172.157,78.5041],[172.209,78.5073],[172.261,78.5114],[172.314,78.5164],[172.366,78.5224],[172.418,78.5292],[172.469,78.5369],[172.521,78.5456],[172.572,78.5551],[172.624,78.5656],[172.675,78.5769],[172.726,78.5891],[172.776,78.6022],[172.827,78.6162],[172.877,78.6311],[172.927,78.6468],[172.977,78.6634],[173.026,78.6809],[173.075,78.6993],[173.124,78.7184],[173.172,78.7385],[173.22,78.7594],[173.268,78.7811],[173.315,78.8036],[173.362,78.827],[173.408,78.8512],[173.454,78.8761],[173.5,78.9019],[173.545,78.9285],[173.59,78.9559],[173.634,78.984],[173.678,79.0129],[173.721,79.0425],[173.763,79.0729],[173.805,79.1041],[173.847,79.136],[173.888,79.1686],[173.928,79.2019],[173.968,79.2359],[174.007,79.2706],[174.046,79.3059],[174.084,79.342],[174.121,79.3787],[174.158,79.416],[174.194,79.454],[174.229,79.4926],[174.264,79.5318],[174.298,79.5716],[174.331,79.612],[174.364,79.653],[174.396,79.6946],[174.427,79.7366],[174.457,79.7793],[174.487,79.8224],[174.516,79.8661],[174.544,79.9102],[174.572,79.9549],[174.598,80],[174.624,80.0456],[174.649,80.0916],[174.673,80.138],[174.696,80.1849],[174.719,80.2321],[174.741,80.2798],[174.762,80.3278],[174.782,80.3762],[174.801,80.4249],[174.819,80.4739],[174.837,80.5233],[174.853,80.5729],[174.869,80.6229],[174.884,80.6731],[174.898,80.7235],[174.911,80.7742],[174.923,80.8251],[174.934,80.8763],[174.945,80.9276],[174.954,80.9791],[174.963,81.0307],[174.971,81.0825],[174.978,81.1344],[174.984,81.1864],[174.989,81.2385],[174.993,81.2907],[174.996,81.343],[174.998,81.3953],[175,81.4476],[175,81.5],[175,163.5],[175,163.552],[174.998,163.605],[174.996,163.657],[174.993,163.709],[174.989,163.761],[174.984,163.814],[174.978,163.866],[174.971,163.918],[174.963,163.969],[174.954,164.021],[174.945,164.072],[174.934,164.124],[174.923,164.175],[174.911,164.226],[174.898,164.276],[174.884,164.327],[174.869,164.377],[174.853,164.427],[174.837,164.477],[174.819,164.526],[174.801,164.575],[174.782,164.624],[174.762,164.672],[174.741,164.72],[174.719,164.768],[174.696,164.815],[174.673,164.862],[174.649,164.908],[174.624,164.954],[174.598,165],[174.572,165.045],[174.544,165.09],[174.516,165.134],[174.487,165.178],[174.457,165.221],[174.427,165.263],[174.396,165.305],[174.364,165.347],[174.331,165.388],[174.298,165.428],[174.264,165.468],[174.229,165.507],[174.194,165.546],[174.158,165.584],[174.121,165.621],[174.084,165.658],[174.046,165.694],[174.007,165.729],[173.968,165.764],[173.928,165.798],[173.888,165.831],[173.847,165.864],[173.805,165.896],[173.763,165.927],[173.721,165.957],[173.678,165.987],[173.634,166.016],[173.59,166.044],[173.545,166.072],[173.5,166.098],[173.454,166.124],[173.408,166.149],[173.362,166.173],[173.315,166.196],[173.268,166.219],[173.22,166.241],[173.172,166.262],[173.124,166.282],[173.075,166.301],[173.026,166.319],[172.977,166.337],[172.927,166.353],[172.877,166.369],[172.827,166.384],[172.776,166.398],[172.726,166.411],[172.675,166.423],[172.624,166.434],[172.572,166.445],[172.521,166.454],[172.469,166.463],[172.418,166.471],[172.366,166.478],[172.314,166.484],[172.261,166.489],[172.209,166.493],[172.157,166.496],[172.105,166.498],[172.052,166.5],[172,166.5],[73,166.5],[72.9476,166.5],[72.8953,166.498],[72.843,166.496],[72.7907,166.493],[72.7385,166.489],[72.6864,166.484],[72.6344,166.478],[72.5825,166.471],[72.5307,166.463],[72.4791,166.454],[72.4276,166.445],[72.3763,166.434],[72.3251,166.423],[72.2742,166.411],[72.2235,166.398],[72.1731,166.384],[72.1229,166.369],[72.0729,166.353],[72.0233,166.337],[71.9739,166.319],[71.9249,166.301],[71.8762,166.282],[71.8278,166.262],[71.7798,166.241],[71.7321,166.219],[71.6849,166.196],[71.638,166.173],[71.5916,166.149],[71.5456,166.124],[71.5,166.098],[71.4549,166.072],[71.4102,166.044],[71.3661,166.016],[71.3224,165.987],[71.2793,165.957],[71.2366,165.927],[71.1946,165.896],[71.153,165.864],[71.112,165.831],[71.0716,165.798],[71.0318,165.764],[70.9926,165.729],[70.954,165.694],[70.916,165.658],[70.8787,165.621],[70.842,165.584],[70.8059,165.546],[70.7706,165.507],[70.7359,165.468],[70.7019,165.428],[70.6686,165.388],[70.636,165.347],[70.6041,165.305],[70.5729,165.263],[70.5425,165.221],[70.5129,165.178],[70.484,165.134],[70.4559,165.09],[70.4285,165.045],[70.4019,165],[70.3761,164.954],[70.3512,164.908],[70.327,164.862],[70.3036,164.815],[70.2811,164.768],[70.2594,164.72],[70.2385,164.672],[70.2184,164.624],[70.1993,164.575],[70.1809,164.526],[70.1634,164.477],[70.1468,164.427],[70.1311,164.377],[70.1162,164.327],[70.1022,164.276],[70.0891,164.226],[70.0769,164.175],[70.0656,164.124],[70.0551,164.072],[70.0456,164.021],[70.0369,163.969],[70.0292,163.918],[70.0224,163.866],[70.0164,163.814],[70.0114,163.761],[70.0073,163.709],[70.0041,163.657],[70.0018,163.605],[70.0005,163.552],[70,163.5],[70,81.5]]
M73 P0 R40
M106 S0
M106 P2 S0
;TYPE:Custom
SET_PRINT_STATS_INFO TOTAL_LAYER=70 
PRINT_START BED=55 HOTEND=220 CHAMBER=0
M83
M140 S55
M104 S220
G4 P3000
G0 X64.5 Y73 Z5 F6000
G0 Z0.2 F600
G1 E3 F1800
G1 X149.5 E3.4 F3000
G1 Y75 E0.08 F3000
G1 X64.5 E3.4 F3000
G1 Y158 E3.32 F3000
G1 X66.5 E0.08 F3000
G1 Y76 E3.28 F3000
G1 X67.5 Z0
G1 X70.5
G1 Z1 F600
G90
G21
M83 ; use relative distances for extrusion
; MANUAL_TOOL_CHANGE T0
M104 S220 ; set nozzle temperature
; filament start gcode
M106 P3 S150


M106 S0
M106 P2 S0
;LAYER_CHANGE
;Z:0.2
;HEIGHT:0.2
;BEFORE_LAYER_CHANGE
; Layer Height: 0.2
;0.2
G92 E0
TIMELAPSE_TAKE_FRAME

G1 E-.8 F1800

;New Layer
;LAYER: 0
SET_PRINT_STATS_INFO CURRENT_LAYER=0
LOG_Z
G92 E0

;_SET_FAN_SPEED_CHANGING_LAYER
SET_VELOCITY_LIMIT ACCEL=500 ACCEL_TO_DECEL=250
; printing object Player Tray Lid.stl id:0 copy 0
EXCLUDE_OBJECT_START NAME=Player_Tray_Lid.stl_id_0_copy_0
G1 Z.6 F15000
G1 X160.142 Y102.606
G1 Z.2
G1 E.8 F1800
;TYPE:Brim
;WIDTH:0.5
G1 F6000
G1 X160.269 Y102.499 E.00617
G1 X160.345 Y102.371 E.00555
G1 X160.336 Y102.296 E.00282
G1 X161.676 Y102.296 E.04992
G1 X161.684 Y102.375 E.00296
G1 X161.743 Y102.455 E.00368
G1 X161.927 Y102.614 E.00909
G1 X161.732 Y102.526 E.00798
G1 X161.333 Y102.431 E.01527
G1 X160.901 Y102.416 E.01613
G1 X160.464 Y102.486 E.01646
G1 X160.179 Y102.592 E.01133
G1 E-.2 F1800
;WIPE_START
G1 F6000
G1 X160.269 Y102.499 E-.03858
G1 X160.345 Y102.371 E-.04473
G1 X160.336 Y102.296 E-.02269
G1 X161.676 Y102.296 E-.40209
G1 X161.684 Y102.375 E-.02388
G1 X161.743 Y102.455 E-.02965
G1 X161.84 Y102.538 E-.03839
;WIPE_END
G1 Z.6 F15000
G1 X159.089 Y103.511 Z.6
G1 Z.2
G1 E.8 F1800
G1 F6000
G1 X158.935 Y103.818 E.01278
G1 X158.829 Y104.208 E.01506
G1 X158.803 Y104.633 E.01584
G1 X158.86 Y105.054 E.01582
G1 X158.997 Y105.445 E.01543
G1 X159.217 Y105.809 E.01584
G1 X159.487 Y106.111 E.01511
G1 X159.829 Y106.381 E.01622
G1 X160.207 Y106.574 E.0158
G1 X160.661 Y106.694 E.01747
G1 X161.08 Y106.716 E.01564
G1 X161.527 Y106.659 E.01681
G1 X161.944 Y106.518 E.01637
G1 X162.288 Y106.322 E.01476
G1 X162.667 Y105.993 E.01867
G1 X162.909 Y105.686 E.01456
G1 X163.099 Y105.314 E.01559
G1 X163.219 Y104.848 E.0179
G1 X163.24 Y104.451 E.01484
G1 X163.182 Y104.05 E.01506
G1 X163.046 Y103.68 E.01469
G1 X162.974 Y103.56 E.00522
G1 X163.083 Y103.702 E.00666
G1 X163.181 Y103.876 E.00742
G1 X163.254 Y104.061 E.00743
G1 X163.294 Y104.215 E.00592
G1 X163.328 Y104.486 E.01018
G1 X163.306 Y104.962 E.01775
G1 X163.233 Y105.313 E.01335
G1 X163.164 Y105.515 E.00797
G1 X163.02 Y105.806 E.01208
G1 X162.828 Y106.077 E.01237
G1 X162.646 Y106.275 E.01002
G1 X162.295 Y106.553 E.01668
G1 X161.897 Y106.753 E.0166
G1 X161.457 Y106.87 E.01695
G1 X161.203 Y106.899 E.00955
G1 X160.912 Y106.905 E.01083
G1 X160.441 Y106.848 E.01766
G1 X160.02 Y106.707 E.01652
G1 X159.636 Y106.484 E.01656
G1 X159.312 Y106.203 E.01597
G1 X159.002 Y105.808 E.01872
G1 X158.88 Y105.579 E.00967
G1 X158.789 Y105.336 E.00967
G1 X158.717 Y105.011 E.0124
G1 X158.692 Y104.711 E.01119
G1 X158.7 Y104.442 E.01004
G1 X158.735 Y104.205 E.00891
G1 X158.792 Y104.005 E.00776
G1 X158.87 Y103.825 E.00731
G1 X159.066 Y103.544 E.01274
G1 E-.2 F1800
;WIPE_START
G1 F6000
G1 X158.935 Y103.818 E-.09109
G1 X158.829 Y104.208 E-.12133
G1 X158.803 Y104.633 E-.12761
G1 X158.86 Y105.054 E-.12745
G1 X158.997 Y105.445 E-.12432
G1 X159.011 Y105.468 E-.00819
;WIPE_END
G1 Z.6 F15000
G1 X160.787 Y123.386 Z.6
G1 Z.2
G1 E.8 F1800
G1 F6000
G1 X160.787 Y127.866 E.16688
G1 X160.635 Y127.857 E.00564
G1 X160.298 Y127.783 E.01287
G1 X159.891 Y127.612 E.01645
G1 X159.502 Y127.347 E.01752
G1 X159.221 Y127.076 E.01452
G1 X158.956 Y126.714 E.01673
G1 X158.783 Y126.336 E.01548
G1 X158.688 Y125.91 E.01625
G1 X158.671 Y125.564 E.01293
G1 X158.717 Y125.106 E.01713
G1 X158.829 Y124.72 E.01499
G1 X159.022 Y124.353 E.01544
G1 X159.295 Y124.027 E.01583
G1 X159.517 Y123.842 E.01077
G1 X159.682 Y123.734 E.00733
G1 X160.101 Y123.536 E.01727
G1 X160.518 Y123.419 E.01614
G1 X160.747 Y123.391 E.00859
G1 X160.565 Y123.632 F15000
G1 F6000
G1 X160.67 Y123.711 E.00488
G1 X160.73 Y123.888 E.00697
G1 X160.73 Y127.336 E.12843
G1 X160.701 Y127.447 E.00426
G1 X160.654 Y127.532 E.00361
G1 X160.475 Y127.649 E.00796
G1 X160.386 Y127.657 E.00336
G1 X160.27 Y127.638 E.00435
G1 X159.976 Y127.505 E.01204
G1 X159.676 Y127.31 E.01333
G1 X159.42 Y127.085 E.01268
G1 X159.179 Y126.806 E.01374
G1 X159.019 Y126.552 E.01118
G1 X158.893 Y126.254 E.01206
G1 X158.833 Y126.022 E.0089
G1 X158.795 Y125.721 E.0113
G1 X158.797 Y125.394 E.01221
G1 X158.842 Y125.067 E.01228
G1 X158.928 Y124.774 E.01137
G1 X159.081 Y124.463 E.01291
G1 X159.288 Y124.19 E.01274
G1 X159.544 Y123.958 E.0129
G1 X159.808 Y123.787 E.01171
G1 X160.293 Y123.578 E.01965
G1 X160.406 Y123.569 E.00426
G1 X160.502 Y123.585 E.00361
G1 X160.533 Y123.608 E.00145
G1 E-.2 F1800
;WIPE_START
G1 F6000
G1 X160.67 Y123.711 E-.05129
G1 X160.73 Y123.888 E-.05614
G1 X160.73 Y125.53 E-.49257
;WIPE_END
G1 Z.6 F15000
G1 X160.533 Y135.951 Z.6
G1 Z.2
G1 E.8 F1800
G1 F6000
G1 X161.676 Y135.951 E.04259
G1 X161.684 Y136.03 E.00296
G1 X161.743 Y136.11 E.00368
G1 X161.928 Y136.269 E.00911
G1 X161.731 Y136.18 E.00803
G1 X161.333 Y136.086 E.01523
G1 X160.901 Y136.071 E.01613
G1 X160.464 Y136.141 E.01646
G1 X160.142 Y136.261 E.01282
G1 X160.269 Y136.154 E.00617
G1 X160.345 Y136.026 E.00555
G1 X160.336 Y135.951 E.00282
G1 X160.493 Y135.951 E.00584
G1 E-.2 F1800
;WIPE_START
G1 F6000
G1 X161.676 Y135.951 E-.35503
G1 X161.684 Y136.03 E-.02388
G1 X161.743 Y136.11 E-.02965
G1 X161.928 Y136.269 E-.07334
G1 X161.731 Y136.18 E-.06471
G1 X161.558 Y136.139 E-.0534
;WIPE_END
G1 Z.6 F15000
G1 X159.089 Y137.166 Z.6
G1 Z.2
G1 E.8 F1800
G1 F6000
G1 X158.935 Y137.473 E.01278
G1 X158.829 Y137.863 E.01506
G1 X158.803 Y138.288 E.01584
G1 X158.86 Y138.709 E.01582
G1 X158.997 Y139.1 E.01544
G1 X159.217 Y139.464 E.01584
G1 X159.487 Y139.766 E.01511
G1 X159.829 Y140.036 E.01622
G1 X160.207 Y140.229 E.0158
G1 X160.661 Y140.349 E.01747
G1 X161.08 Y140.371 E.01564
G1 X161.528 Y140.314 E.01681
G1 X161.944 Y140.173 E.01637
G1 X162.288 Y139.977 E.01476
G1 X162.667 Y139.648 E.01867
G1 X162.909 Y139.341 E.01456
G1 X163.099 Y138.969 E.01559
G1 X163.219 Y138.503 E.0179
G1 X163.24 Y138.106 E.01484
G1 X163.182 Y137.705 E.01506
G1 X163.046 Y137.335 E.01469
G1 X162.974 Y137.215 E.00523
G1 X163.083 Y137.356 E.00664
G1 X163.181 Y137.53 E.00744
G1 X163.254 Y137.716 E.00744
G1 X163.294 Y137.87 E.00592
G1 X163.328 Y138.141 E.01018
G1 X163.306 Y138.617 E.01775
G1 X163.233 Y138.968 E.01335
G1 X163.164 Y139.17 E.00797
G1 X163.02 Y139.461 E.01208
G1 X162.828 Y139.732 E.01237
G1 X162.646 Y139.93 E.01002
G1 X162.295 Y140.208 E.01668
G1 X161.897 Y140.408 E.0166
G1 X161.457 Y140.525 E.01695
G1 X161.203 Y140.554 E.00955
G1 X160.912 Y140.56 E.01082
G1 X160.441 Y140.503 E.01766
G1 X160.021 Y140.362 E.01652
G1 X159.636 Y140.139 E.01656
G1 X159.312 Y139.858 E.01597
G1 X159.002 Y139.463 E.01872
G1 X158.88 Y139.234 E.00967
G1 X158.789 Y138.991 E.00967
G1 X158.717 Y138.666 E.0124
G1 X158.692 Y138.366 E.01119
G1 X158.7 Y138.097 E.01004
G1 X158.735 Y137.86 E.00891
G1 X158.792 Y137.66 E.00776
G1 X158.87 Y137.48 E.00731
G1 X159.066 Y137.199 E.01274
G1 E-.2 F1800
;WIPE_START
G1 F6000
G1 X158.935 Y137.473 E-.09109
G1 X158.829 Y137.863 E-.12132
G1 X158.803 Y138.288 E-.12762
G1 X158.86 Y138.709 E-.12745
G1 X158.997 Y139.1 E-.12433
G1 X159.011 Y139.123 E-.00819
;WIPE_END
G1 Z.6 F15000
G1 X158.594 Y144.93 Z.6
G1 Z.2
G1 E.8 F1800
G1 F6000
G1 X158.816 Y144.974 E.00841
G1 X159.122 Y145.09 E.01221
G1 X159.374 Y145.256 E.01125
G1 X159.625 Y145.521 E.01359
G1 X159.747 Y145.711 E.00841
G1 X159.868 Y145.969 E.01061
G1 X159.962 Y146.28 E.0121
G1 X160.006 Y146.516 E.00895
G1 X160.036 Y146.868 E.01316
G1 X160.039 Y148.339 E.05476
G1 X160.071 Y148.429 E.00358
G1 X156.597 Y148.429 E.12938
G1 X156.597 Y146.898 E.05703
G1 X156.615 Y146.498 E.0149
G1 X156.693 Y146.025 E.01787
G1 X156.835 Y145.626 E.01578
G1 X157.03 Y145.336 E.01301
G1 X157.183 Y145.197 E.00771
G1 X157.412 Y145.063 E.00987
G1 X157.597 Y144.995 E.00735
G1 X157.829 Y144.943 E.00884
G1 X158.112 Y144.913 E.01061
G1 X158.554 Y144.929 E.01647
G1 X158.549 Y145.157 F15000
G1 F6000
G1 X158.605 Y145.159 E.00206
G1 X159.053 Y145.291 E.01743
G1 X159.253 Y145.412 E.00871
G1 X159.408 Y145.545 E.00758
G1 X159.666 Y145.912 E.01671
G1 X159.803 Y146.281 E.01466
G1 X159.869 Y146.624 E.01301
G1 X159.891 Y146.872 E.00926
G1 X159.898 Y147.879 E.03753
G1 X159.869 Y147.991 E.0043
G1 X159.823 Y148.076 E.00361
G1 X159.686 Y148.185 E.00652
G1 X159.569 Y148.209 E.00443
G1 X157.067 Y148.209 E.09319
G1 X156.957 Y148.181 E.00426
G1 X156.872 Y148.134 E.00361
G1 X156.763 Y147.997 E.00652
G1 X156.739 Y147.881 E.00442
G1 X156.739 Y147.037 E.03143
G1 X156.758 Y146.679 E.01335
G1 X156.82 Y146.32 E.01359
G1 X156.958 Y145.937 E.01514
G1 X157.14 Y145.65 E.01266
G1 X157.43 Y145.388 E.01456
G1 X157.799 Y145.215 E.0152
G1 X158.144 Y145.149 E.01305
