; HEADER_BLOCK_START
; generated by OrcaSlicer 2.3.1-dev on 2026-01-05 at 08:59:46
; total layer number: 72
; filament_density: 1.25,1.25,1.25,1.25
; filament_diameter: 1.75,1.75,1.75,1.75
; max_z_height: 14.40
; HEADER_BLOCK_END

; THUMBNAIL_BLOCK_START

;
; THUMBNAIL_BLOCK_END

; THUMBNAIL_BLOCK_START

;
; THUMBNAIL_BLOCK_END

; external perimeters extrusion width = 0.42mm
; perimeters extrusion width = 0.45mm
; infill extrusion width = 0.45mm
; solid infill extrusion width = 0.42mm
; top infill extrusion width = 0.42mm
; support material extrusion width = 0.42mm
; first layer extrusion width = 0.50mm

; EXECUTABLE_BLOCK_START
EXCLUDE_OBJECT_DEFINE NAME=Player_Tray_Lid.stl_id_0_copy_0 CENTER=122.5,122.5 POLYGON=[[70,81.5],[70.0005,81.4476],[70.0018,81.3953],[70.0041,81.343],[70.0073,81.2907],[70.0114,81.2385],[70.0164,81.1864],[70.0224,81.1344],[70.0292,81.0825],[70.0369,81.0307],[70.0456,80.9791],[70.0551,80.9276],[70.0656,80.8763],[70.0769,80.8251],[70.0891,80.7742],[70.1022,80.7235],[70.1162,80.6731],[70.1311,80.6229],[70.1468,80.5729],[70.1634,80.5233],[70.1809,80.4739],[70.1993,80.4249],[70.2184,80.3762],[70.2385,80.3278],[70.2594,80.2798],[70.2811,80.2321],[70.3036,80.1849],[70.327,80.138],[70.3512,80.0916],[70.3761,80.0456],[70.4019,80],[70.4285,79.9549],[70.4559,79.9102],[70.484,79.8661],[70.5129,79.8224],[70.5425,79.7793],[70.5729,79.7366],[70.6041,79.6946],[70.636,79.653],[70.6686,79.612],[70.7019,79.5716],[70.7359,79.5318],[70.7706,79.4926],[70.8059,79.454],[70.842,79.416],[70.8787,79.3787],[70.916,79.342],[70.954,79.3059],[70.9926,79.2706],[71.0318,79.2359],[71.0716,79.2019],[71.112,79.1686],[71.153,79.136],[71.1946,79.1041],[71.2366,79.0729],[71.2793,79.0425],[71.3224,79.0129],[71.3661,78.984],[71.4102,78.9559],[71.4549,78.9285],[71.5,78.9019],[71.5456,78.8761],[71.5916,78.8512],[71.638,78.827],[71.6849,78.8036],[71.7321,78.7811],[71.7798,78.7594],[71.8278,78.7385],[71.8762,78.7184],[71.9249,78.6993],[71.9739,78.6809],[72.0233,78.6634],[72.0729,78.6468],[72.1229,78.6311],[72.1731,78.6162],[72.2235,78.6022],[72.2742,78.5891],[72.3251,78.5769],[72.3763,78.5656],[72.4276,78.5551],[72.4791,78.5456],[72.5307,78.5369],[72.5825,78.5292],[72.6344,78.5224],[72.6864,78.5164],[72.7385,78.5114],[72.7907,78.5073],[72.843,78.5041],[72.8953,78.5018],[72.9476,78.5005],[73,78.5],[172,78.5],[172.052,78.5005],[172.105,78.5018],[172.157,78.5041],[172.209,78.5073],[172.261,78.5114],[172.314,78.5164],[172.366,78.5224],[172.418,78.5292],[172.469,78.5369],[172.521,78.5456],[172.572,78.5551],[172.624,78.5656],[172.675,78.5769],[172.726,78.5891],[172.776,78.6022],[172.827,78.6162],[172.877,78.6311],[172.927,78.6468],[172.977,78.6634],[173.026,78.6809],[173.075,78.6993],[173.124,78.7184],[173.172,78.7385],[173.22,78.7594],[173.268,78.7811],[173.315,78.8036],[173.362,78.827],[173.408,78.8512],[173.454,78.8761],[173.5,78.9019],[173.545,78.9285],[173.59,78.9559],[173.634,78.984],[173.678,79.0129],[173.721,79.0425],[173.763,79.0729],[173.805,79.1041],[173.847,79.136],[173.888,79.1686],[173.928,79.2019],[173.968,79.2359],[174.007,79.2706],[174.046,79.3059],[174.084,79.342],[174.121,79.3787],[174.158,79.416],[174.194,79.454],[174.229,79.4926],[174.264,79.5318],[174.298,79.5716],[174.331,79.612],[174.364,79.653],[174.396,79.6946],[174.427,79.7366],[174.457,79.7793],[174.487,79.8224],[174.516,79.8661],[174.544,79.9102],[174.572,79.9549],[174.598,80],[174.624,80.0456],[174.649,80.0916],[174.673,80.138],[174.696,80.1849],[174.719,80.2321],[174.741,80.2798],[174.762,80.3278],[174.782,80.3762],[174.801,80.4249],[174.819,80.4739],[174.837,80.5233],[174.853,80.5729],[174.869,80.6229],[174.884,80.6731],[174.898,80.7235],[174.911,80.7742],[174.923,80.8251],[174.934,80.8763],[174.945,80.9276],[174.954,80.9791],[174.963,81.0307],[174.971,81.0825],[174.978,81.1344],[174.984,81.1864],[174.989,81.2385],[174.993,81.2907],[174.996,81.343],[174.998,81.3953],[175,81.4476],[175,81.5],[175,163.5],[175,163.552],[174.998,163.605],[174.996,163.657],[174.993,163.709],[174.989,163.761],[174.984,163.814],[174.978,163.866],[174.971,163.918],[174.963,163.969],[174.954,164.021],[174.945,164.072],[174.934,164.124],[174.923,164.175],[174.911,164.226],[174.898,164.276],[174.884,164.327],[174.869,164.377],[174.853,164.427],[174.837,164.477],[174.819,164.526],[174.801,164.575],[174.782,164.624],[174.762,164.672],[174.741,164.72],[174.719,164.768],[174.696,164.815],[174.673,164.862],[174.649,164.908],[174.624,164.954],[174.598,165],[174.572,165.045],[174.544,165.09],[174.516,165.134],[174.487,165.178],[174.457,165.221],[174.427,165.263],[174.396,165.305],[174.364,165.347],[174.331,165.388],[174.298,165.428],[174.264,165.468],[174.229,165.507],[174.194,165.546],[174.158,165.584],[174.121,165.621],[174.084,165.658],[174.046,165.694],[174.007,165.729],[173.968,165.764],[173.928,165.798],[173.888,165.831],[173.847,165.864],[173.805,165.896],[173.763,165.927],[173.721,165.957],[173.678,165.987],[173.634,166.016],[173.59,166.044],[173.545,166.072],[173.5,166.098],[173.454,166.124],[173.408,166.149],[173.362,166.173],[173.315,166.196],[173.268,166.219],[173.22,166.241],[173.172,166.262],[173.124,166.282],[173.075,166.301],[173.026,166.319],[172.977,166.337],[172.927,166.353],[172.877,166.369],[172.827,166.384],[172.776,166.398],[172.726,166.411],[172.675,166.423],[172.624,166.434],[172.572,166.445],[172.521,166.454],[172.469,166.463],[172.418,166.471],[172.366,166.478],[172.314,166.484],[172.261,166.489],[172.209,166.493],[172.157,166.496],[172.105,166.498],[172.052,166.5],[172,166.5],[73,166.5],[72.9476,166.5],[72.8953,166.498],[72.843,166.496],[72.7907,166.493],[72.7385,166.489],[72.6864,166.484],[72.6344,166.478],[72.5825,166.471],[72.5307,166.463],[72.4791,166.454],[72.4276,166.445],[72.3763,166.434],[72.3251,166.423],[72.2742,166.411],[72.2235,166.398],[72.1731,166.384],[72.1229,166.369],[72.0729,166.353],[72.0233,166.337],[71.9739,166.319],[71.9249,166.301],[71.8762,166.282],[71.8278,166.262],[71.7798,166.241],[71.7321,166.219],[71.6849,166.196],[71.638,166.173],[71.5916,166.149],[71.5456,166.124],[71.5,166.098],[71.4549,166.072],[71.4102,166.044],[71.3661,166.016],[71.3224,165.987],[71.2793,165.957],[71.2366,165.927],[71.1946,165.896],[71.153,165.864],[71.112,165.831],[71.0716,165.798],[71.0318,165.764],[70.9926,165.729],[70.954,165.694],[70.916,165.658],[70.8787,165.621],[70.842,165.584],[70.8059,165.546],[70.7706,165.507],[70.7359,165.468],[70.7019,165.428],[70.6686,165.388],[70.636,165.347],[70.6041,165.305],[70.5729,165.263],[70.5425,165.221],[70.5129,165.178],[70.484,165.134],[70.4559,165.09],[70.4285,165.045],[70.4019,165],[70.3761,164.954],[70.3512,164.908],[70.327,164.862],[70.3036,164.815],[70.2811,164.768],[70.2594,164.72],[70.2385,164.672],[70.2184,164.624],[70.1993,164.575],[70.1809,164.526],[70.1634,164.477],[70.1468,164.427],[70.1311,164.377],[70.1162,164.327],[70.1022,164.276],[70.0891,164.226],[70.0769,164.175],[70.0656,164.124],[70.0551,164.072],[70.0456,164.021],[70.0369,163.969],[70.0292,163.918],[70.0224,163.866],[70.0164,163.814],[70.0114,163.761],[70.0073,163.709],[70.0041,163.657],[70.0018,163.605],[70.0005,163.552],[70,163.5],[70,81.5]]
M73 P0 R54
M106 S0
M106 P2 S0
;TYPE:Custom
SET_PRINT_STATS_INFO TOTAL_LAYER=72 
PRINT_START BED=55 HOTEND=220 CHAMBER=0
M83
M140 S55
M104 S220
G4 P3000
G0 X60.8355 Y69.4667 Z5 F6000
G0 Z0.2 F600
G1 E3 F1800
G1 X145.835 E3.4 F3000
G1 Y71.4667 E0.08 F3000
G1 X60.8355 E3.4 F3000
G1 Y154.467 E3.32 F3000
G1 X62.8355 E0.08 F3000
G1 Y72.4667 E3.28 F3000
G1 X63.8355 Z0
G1 X66.8355
G1 Z1 F600
G90
G21
M83 ; use relative distances for extrusion
; MANUAL_TOOL_CHANGE T0
; filament start gcode
M106 P3 S150


G1 Z.2 F15000
M106 S0
M106 P2 S0
;LAYER_CHANGE
;Z:0.2
;HEIGHT:0.2
;BEFORE_LAYER_CHANGE
; Layer Height: 0.2
;0.2
G92 E0
TIMELAPSE_TAKE_FRAME


;New Layer
;LAYER: 0
SET_PRINT_STATS_INFO CURRENT_LAYER=0
LOG_Z
G92 E0

;_SET_FAN_SPEED_CHANGING_LAYER
SET_VELOCITY_LIMIT ACCEL=500 ACCEL_TO_DECEL=250
G1 E-.8 F1800
G1 Z.6 F15000
G1 X199.5 Y177.643
G1 Z.6
G1 Z.2
G1 E.8 F1800
;HEIGHT:0.2
;TYPE:Prime tower
;WIDTH:0.5
G1  X199.500 Y208.743  E1.1820 F6000
G1  X165.500  E1.2922
G1  Y177.643  E1.1820
G1  X199.500  E1.2922
G1  Y208.743 
G1  X198.500 
;--------------------
; CP EMPTY GRID START
; layer #1
G1  Y208.243  E0.0190
G1  X166.000  E1.2352
G1  Y207.741  E0.0191
G1  X199.000  E1.2542
G1  Y207.240  E0.0191
G1  X166.000  E1.2542
G1  Y206.738  E0.0191
G1  X199.000  E1.2542
G1  Y206.236  E0.0191
G1  X166.000  E1.2542
G1  Y205.735  E0.0191
G1  X199.000  E1.2542
G1  Y205.233  E0.0191
G1  X166.000  E1.2542
G1  Y204.731  E0.0191
G1  X199.000  E1.2542
G1  Y204.230  E0.0191
G1  X166.000  E1.2542
G1  Y203.728  E0.0191
G1  X199.000  E1.2542
G1  Y203.226  E0.0191
G1  X166.000  E1.2542
G1  Y202.725  E0.0191
G1  X199.000  E1.2542
G1  Y202.223  E0.0191
G1  X166.000  E1.2542
G1  Y201.721  E0.0191
G1  X199.000  E1.2542
G1  Y201.220  E0.0191
G1  X166.000  E1.2542
G1  Y200.718  E0.0191
G1  X199.000  E1.2542
G1  Y200.216  E0.0191
G1  X166.000  E1.2542
G1  Y199.715  E0.0191
G1  X199.000  E1.2542
G1  Y199.213  E0.0191
G1  X166.000  E1.2542
G1  Y198.711  E0.0191
G1  X199.000  E1.2542
G1  Y198.210  E0.0191
G1  X166.000  E1.2542
G1  Y197.708  E0.0191
G1  X199.000  E1.2542
G1  Y197.206  E0.0191
G1  X166.000  E1.2542
G1  Y196.705  E0.0191
G1  X199.000  E1.2542
G1  Y196.203  E0.0191
M73 P0 R53
G1  X166.000  E1.2542
G1  Y195.701  E0.0191
G1  X199.000  E1.2542
G1  Y195.200  E0.0191
G1  X166.000  E1.2542
G1  Y194.698  E0.0191
G1  X199.000  E1.2542
G1  Y194.196  E0.0191
G1  X166.000  E1.2542
G1  Y193.695  E0.0191
G1  X199.000  E1.2542
G1  Y193.193  E0.0191
G1  X166.000  E1.2542
G1  Y192.691  E0.0191
G1  X199.000  E1.2542
G1  Y192.190  E0.0191
G1  X166.000  E1.2542
G1  Y191.688  E0.0191
G1  X199.000  E1.2542
G1  Y191.186  E0.0191
G1  X166.000  E1.2542
G1  Y190.685  E0.0191
G1  X199.000  E1.2542
G1  Y190.183  E0.0191
G1  X166.000  E1.2542
G1  Y189.681  E0.0191
G1  X199.000  E1.2542
G1  Y189.180  E0.0191
M73 P1 R53
G1  X166.000  E1.2542
G1  Y188.678  E0.0191
G1  X199.000  E1.2542
G1  Y188.176  E0.0191
G1  X166.000  E1.2542
G1  Y187.675  E0.0191
G1  X199.000  E1.2542
G1  Y187.173  E0.0191
G1  X166.000  E1.2542
G1  Y186.671  E0.0191
G1  X199.000  E1.2542
G1  Y186.170  E0.0191
G1  X166.000  E1.2542
G1  Y185.668  E0.0191
G1  X199.000  E1.2542
G1  Y185.166  E0.0191
G1  X166.000  E1.2542
G1  Y184.665  E0.0191
G1  X199.000  E1.2542
G1  Y184.163  E0.0191
G1  X166.000  E1.2542
G1  Y183.661  E0.0191
G1  X199.000  E1.2542
G1  Y183.160  E0.0191
G1  X166.000  E1.2542
G1  Y182.658  E0.0191
G1  X199.000  E1.2542
G1  Y182.156  E0.0191
G1  X166.000  E1.2542
G1  Y181.655  E0.0191
G1  X199.000  E1.2542
G1  Y181.153  E0.0191
G1  X166.000  E1.2542
G1  Y180.651  E0.0191
G1  X199.000  E1.2542
G1  Y180.150  E0.0191
G1  X166.000  E1.2542
G1  Y179.648  E0.0191
G1  X199.000  E1.2542
G1  Y179.146  E0.0191
G1  X166.000  E1.2542
G1  Y178.645  E0.0191
G1  X199.000  E1.2542
G1  Y178.143  E0.0191
G1  X166.000  E1.2542
G1  Y177.643  E0.0190
; CP EMPTY GRID END
;------------------






G1  X165.000 Y177.143  
G1  X200.000  E1.3302
G1  Y209.243  E1.2200
G1  X165.000  E1.3302
G1  Y177.143  E1.2200
; WIPE_TOWER_BRIM_START
G1  X164.543 Y176.686  
G1  X200.457  E1.3650
G1  Y209.700  E1.2547
G1  X164.543  E1.3650
G1  Y176.686  E1.2547
G1  X164.086 Y176.229  
G1  X200.914  E1.3997
G1  Y210.157  E1.2895
G1  X164.086  E1.3997
G1  Y176.229  E1.2895
G1  X163.629 Y175.772  
G1  X201.371  E1.4345
G1  Y210.614  E1.3242
G1  X163.629  E1.4345
G1  Y175.772  E1.3242
G1  X163.172 Y175.315  
G1  X201.828  E1.4692
G1  Y211.071  E1.3590
G1  X163.172  E1.4692
G1  Y175.315  E1.3590
G1  X162.715 Y174.858  
G1  X202.285  E1.5039
G1  Y211.528  E1.3937
G1  X162.715  E1.5039
G1  Y174.858  E1.3937
G1  X162.258 Y174.401  
G1  X202.742  E1.5387
G1  Y211.985  E1.4285
G1  X162.258  E1.5387
G1  Y174.401  E1.4285
G1  X161.800 Y173.943  
G1  X203.200  E1.5734
G1  Y212.443  E1.4632
G1  X161.800  E1.5734
G1  Y173.943  E1.4632
; WIPE_TOWER_BRIM_END

; printing object Player Tray Lid.stl id:0 copy 0
;WIPE_START
G1 F3600
G1 X161.8 Y175.943 E-.8
;WIPE_END
EXCLUDE_OBJECT_START NAME=Player_Tray_Lid.stl_id_0_copy_0
G1 Z.6 F15000
G1 X173.405 Y168.533 Z.6
G1 Z.2
G1 E.8 F1800
;TYPE:Support interface
;WIDTH:0.42
;HEIGHT:0.2
G1 F6000
G1 X174.287 Y168.533 E.02713
G1 X174.287 Y167.462 E.03292
G1 X173.216 Y168.533 E.04656
G1 X171.976 Y168.533 E.03811
G1 X174.287 Y166.222 E.10046
G1 X174.287 Y165.656 E.01737
G1 X174.853 Y165.656 E.01737
G1 X177.165 Y163.344 E.10046
G1 X177.165 Y164.585 E.03811
G1 X176.093 Y165.656 E.04656
G1 X175.041 Y165.656 E.03232
G1 E-.2 F1800
;WIPE_START
G1 F6000
G1 X176.093 Y165.656 E-.31555
G1 X176.764 Y164.986 E-.28445
;WIPE_END
G1 Z.6 F15000
G1 X176.282 Y165.656 Z.6
G1 Z.2
G1 E.8 F1800
G1 F6000
G1 X177.165 Y165.656 E.02713
G1 X177.165 Y164.773 E.02713
G1 E-.27031 F1800
;WIPE_START
G1 F6000
G1 X177.165 Y165.656 E-.26484
G1 X176.282 Y165.656 E-.26484
;WIPE_END
G1 Z.6 F15000
G1 X177.165 Y163.156 Z.6
G1 Z.2
G1 E.8 F1800
G1 F6000
M73 P2 R53
G1 X177.165 Y162.104 E.03232
G1 X170.735 Y168.533 E.27938
G1 X169.495 Y168.533 E.03811
G1 X177.165 Y160.864 E.33328
G1 X177.165 Y159.623 E.03811
G1 X168.255 Y168.533 E.38718
G1 X167.014 Y168.533 E.03811
G1 X177.165 Y158.383 E.44108
G1 X177.165 Y157.143 E.03811
G1 X165.774 Y168.533 E.49498
G1 X164.533 Y168.533 E.03811
G1 X177.165 Y155.902 E.54888
G1 X177.165 Y154.662 E.03811
G1 X163.293 Y168.533 E.60278
G1 X162.053 Y168.533 E.03811
G1 X177.165 Y153.421 E.65668
G1 X177.165 Y152.181 E.03811
G1 X160.812 Y168.533 E.71058
G1 X159.572 Y168.533 E.03811
G1 X177.165 Y150.941 E.76448
G1 X177.165 Y149.7 E.03811
G1 X158.332 Y168.533 E.81838
G1 X157.091 Y168.533 E.03811
G1 X177.165 Y148.46 E.87228
G1 X177.165 Y147.22 E.03811
G1 X155.851 Y168.533 E.92618
G1 X154.61 Y168.533 E.03811
G1 X177.165 Y145.979 E.98008
G1 X177.165 Y144.739 E.03811
G1 X153.37 Y168.533 E1.03398
G1 X152.13 Y168.533 E.03811
G1 X177.165 Y143.498 E1.08788
G1 X177.165 Y142.258 E.03811
G1 X150.889 Y168.533 E1.14179
G1 X149.649 Y168.533 E.03811
G1 X177.165 Y141.018 E1.19569
G1 X177.165 Y139.777 E.03811
G1 X148.409 Y168.533 E1.24959
G1 X147.168 Y168.533 E.03811
G1 X177.165 Y138.537 E1.30349
G1 X177.165 Y137.297 E.03811
G1 X145.928 Y168.533 E1.35739
G1 X144.687 Y168.533 E.03811
G1 X177.165 Y136.056 E1.41129
G1 X177.165 Y134.816 E.03811
G1 X143.447 Y168.533 E1.46519
G1 X142.207 Y168.533 E.03811
G1 X177.165 Y133.575 E1.51909
G1 X177.165 Y132.335 E.03811
G1 X140.966 Y168.533 E1.57299
G1 X139.726 Y168.533 E.03811
G1 X177.165 Y131.095 E1.62689
G1 X177.165 Y129.854 E.03811
G1 X138.486 Y168.533 E1.68079
G1 X137.245 Y168.533 E.03811
G1 X177.165 Y128.614 E1.73469
G1 X177.165 Y127.374 E.03811
G1 X136.005 Y168.533 E1.78859
G1 X134.764 Y168.533 E.03811
G1 X177.165 Y126.133 E1.84249
G1 X177.165 Y124.893 E.03811
G1 X133.524 Y168.533 E1.89639
G1 X132.284 Y168.533 E.03811
G1 X177.165 Y123.652 E1.95029
G1 X177.165 Y122.412 E.03811
G1 X131.043 Y168.533 E2.00419
G1 X129.803 Y168.533 E.03811
M73 P2 R52
G1 X177.165 Y121.172 E2.05809
G1 X177.165 Y119.931 E.03811
G1 X128.563 Y168.533 E2.11199
G1 X127.322 Y168.533 E.03811
G1 X177.165 Y118.691 E2.16589
G1 X177.165 Y117.451 E.03811
G1 X126.082 Y168.533 E2.21979
G1 X124.841 Y168.533 E.03811
G1 X177.165 Y116.21 E2.27369
G1 X177.165 Y114.97 E.03811
G1 X123.601 Y168.533 E2.32759
G1 X122.361 Y168.533 E.03811
G1 X177.165 Y113.729 E2.38149
G1 X177.165 Y112.489 E.03811
G1 X121.12 Y168.533 E2.43539
G1 X119.88 Y168.533 E.03811
G1 X177.165 Y111.249 E2.48929
G1 X177.165 Y110.008 E.03811
G1 X118.64 Y168.533 E2.5432
G1 X117.399 Y168.533 E.03811
G1 X177.165 Y108.768 E2.5971
G1 X177.165 Y107.528 E.03811
G1 X116.159 Y168.533 E2.651
G1 X114.918 Y168.533 E.03811
G1 X177.165 Y106.287 E2.7049
G1 X177.165 Y105.047 E.03811
M73 P3 R52
G1 X113.678 Y168.533 E2.7588
G1 X112.438 Y168.533 E.03811
G1 X177.165 Y103.806 E2.8127
G1 X177.165 Y102.566 E.03811
G1 X111.197 Y168.533 E2.8666
G1 X109.957 Y168.533 E.03811
G1 X177.165 Y101.326 E2.9205
G1 X177.165 Y100.085 E.03811
G1 X108.716 Y168.533 E2.9744
G1 X107.476 Y168.533 E.03811
